app/assets/images/person.svg

<svg width="40" height="50" viewBox="0 0 40 50" fill="none" xmlns="http://www.w3.org/2000/svg">
  <g clip-path="url(#clip0)">
    <path d="M27.5229 36.1084C22.6553 40.8418 16.4106 41.2779 11.5905 36.1084C6.90104 36.1084 2.86523 40.4482 2.86523 44.6391V48.0003H37.4598V44.6391C37.4598 40.4588 32.2124 36.1084 27.5229 36.1084Z" fill="white" stroke="black" stroke-width="3" stroke-linejoin="round"/>
    <path d="M9.35156 27.4336C9.35156 35.7932 14.1839 40.4322 20.1314 40.4322C25.9426 40.4322 30.9732 35.7932 30.9732 27.4336C30.9732 24.6431 29.9943 22.7945 29.9943 22.7945C27.0454 20.0041 23.1423 16.6484 23.1423 16.6484C19.2145 19.4389 16.2903 20.9342 10.3924 21.8644C10.38 21.8526 9.35156 22.7828 9.35156 27.4336Z" fill="white" stroke="black" stroke-width="3" stroke-linejoin="round"/>
    <path d="M30.9022 29.5607C31.0793 28.5241 31.1805 27.5363 31.1805 26.3412C31.1805 23.4388 30.1812 21.512 30.1812 21.512C27.1705 18.6096 23.1605 15.1218 23.1605 15.1218C19.1505 18.0242 16.1398 19.5852 10.1184 20.5486C10.1184 20.5486 9.05583 21.512 9.05583 26.3412C9.05583 27.4265 9.05582 28.6582 9.20762 29.6216C6.10839 28.9265 6.1084 24.6095 6.1084 21.512C6.1084 14.756 10.1184 8 20.1625 8C30.2065 8 34.2165 14.756 34.2165 21.512C34.1912 23.951 34.3051 29.0119 30.9022 29.5607Z" fill="black" stroke="black" stroke-width="3" stroke-linejoin="round"/>
  </g>
  <defs>
    <clipPath id="clip0">
      <rect width="40" height="50" fill="white"/>
    </clipPath>
  </defs>
</svg>

<svg width="40" height="50" fill="none" xmlns="http://www.w3.org/2000/svg"><g clip-path="url(#clip0)" stroke="#000" stroke-width="3" stroke-linejoin="round"><path d="M27.523 36.108c-4.868 4.734-11.112 5.17-15.932 0-4.69 0-8.726 4.34-8.726 8.531V48H37.46v-3.36c0-4.181-5.248-8.532-9.937-8.532z" fill="#fff"/><path d="M9.352 27.434c0 8.36 4.832 12.998 10.78 12.998 5.81 0 10.841-4.639 10.841-12.998 0-2.79-.979-4.64-.979-4.64-2.949-2.79-6.852-6.146-6.852-6.146-3.927 2.79-6.852 4.286-12.75 5.216-.012-.011-1.04.919-1.04 5.57z" fill="#fff"/><path d="M30.902 29.56c.177-1.036.278-2.024.278-3.219 0-2.902-.999-4.829-.999-4.829-3.01-2.902-7.02-6.39-7.02-6.39-4.01 2.902-7.021 4.463-13.043 5.427 0 0-1.062.963-1.062 5.792 0 1.085 0 2.317.152 3.28-3.1-.694-3.1-5.011-3.1-8.109C6.108 14.756 10.118 8 20.163 8c10.043 0 14.054 6.756 14.054 13.512-.026 2.439.088 7.5-3.315 8.049z" fill="#000"/></g><defs><clipPath id="clip0"><path fill="#fff" d="M0 0h40v50H0z"/></clipPath></defs></svg>
